Yaru++/actions/16/node-type-smooth.svg

<svg xmlns="http://www.w3.org/2000/svg" viewBox="0 0 24 24">
 <defs>
  <style id="current-color-scheme" type="text/css">
   .ColorScheme-Text { color:#808080; } .ColorScheme-Highlight { color:#1d99f3; }
  </style>
 </defs>
 <path style="fill:currentColor" class="ColorScheme-Text" d="M 2 3 A 10 15 0 0 0 10 17.679688 L 10 16.636719 A 9 14 0 0 1 3 3 L 2 3 z M 21 3 A 9 14 0 0 1 14 16.632812 L 14 17.695312 A 10 15 0 0 0 22 3 L 21 3 z M 4 16 L 4 19 L 7 19 L 7 18 L 8 18 L 8 17 L 7 17 L 7 16 L 4 16 z M 19 16 L 19 17 L 18 17 L 18 18 L 19 18 L 19 19 L 22 19 L 22 16 L 19 16 z M 5 17 L 6 17 L 6 18 L 5 18 L 5 17 z M 16 17 L 16 18 L 17 18 L 17 17 L 16 17 z M 20 17 L 21 17 L 21 18 L 20 18 L 20 17 z"/>
 <path style="fill:currentColor" class="ColorScheme-Highlight" d="M 9.5 15 L 9.5 20 L 14.5 20 L 14.5 15 L 9.5 15 z M 10.5 16 L 13.5 16 L 13.5 19 L 10.5 19 L 10.5 16 z"/>
</svg>

<svg viewBox="0 0 24 24" xmlns="http://www.w3.org/2000/svg"><path d="m2 3a10 15 0 0 0 8 14.679688v-1.042969a9 14 0 0 1 -7-13.636719zm19 0a9 14 0 0 1 -7 13.632812v1.0625a10 15 0 0 0 8-14.695312zm-17 13v3h3v-1h1v-1h-1v-1zm15 0v1h-1v1h1v1h3v-3zm-14 1h1v1h-1zm11 0v1h1v-1zm4 0h1v1h-1z" fill="#808080"/><path d="m9.5 15v5h5v-5zm1 1h3v3h-3z" fill="#1d99f3"/></svg>
